X:1
T:G Major Samuel Holyoke, 1797
T:Isaac Watts, 1709 (Hymn 169, Book 2)      66. 66. 44. 44.
T:Loudon Transcribed from The Village Harmony, 1803.
%%score [ 1 2 3 4 ]
L:1/8
Q:1/4=120
M:4/4
K:G
V:1 treble nm="Tr." snm="Tr."
V:2 treble nm="C." snm="C."
V:3 treble-8 nm="T." snm="T."
V:4 bass nm="B." snm="B."
V:1
 B8 | B2 B2 ^c2 d2 | d6 B2 | c2 dB c2 d2 | d6 d2 | c2 BA d2 d2 | d6 d2 | d2 c2 B2 AG | F4 z4 | z8 | %10
w: 1.~And|can this migh- ty|King Of|glo- ry * con- de-|scend? And|will he * write his|name, "My|Fa- ther and my *|friend?"||
 z8 | z8 | z8 | d4 d2 ^c2 | d6 e2 | d4 c4 | B8 |] %17
w: |||Join all my|powers, and|praise the|Lord.|
V:2
 D8 | D2 D2 E2 F2 | G6 G2 | G2 G2 F2 G2 | F6 G2 | G2 F2 G2 F2 | G6 F2 | G2 E2 G2 E2 | D4 z4 | z8 | %10
w: 2.~The|Lord Je- ho- vah|reigns, His|throne is built on|high; The|gar- ments he as-|sumes Are|light and ma- jes-|ty.||
w: 3.~The|thun- ders of his|hand Keep|the wide world in|awe; His|wrath and jus- tice|stand To|guard his ho- ly|law.||
 z8 | z8 | z8 | B4 A2 G2 | (F2 GD G2) A2 | G4 F4 | G8 |] %17
w: |||No mor- tal|eye~ _ _ _ can|bear the|sight.|
w: |||His truth con-|firms~ _ _ _ and|seals the|grace.|
V:3
 G8 | d2 B2 G2 A2 | B6 d2 | e2 d2 c2 B2 | A6 d2 | e2 dc B2 A2 | B6 A2 | B2 A2 B2 ^c2 | d4 z2 A2 | %9
w: ||||||||* 1.~I|
w: ||||||||* 2.~His|
w: ||||||||* 3.~And|
w: ||||||||* 4.~Strong|
 (B3 A G2) A2 | (B3 c d2) c2 | (B3 A G2) A2 | B6 z2 | g4 f2 e2 | (d3 c B2) c2 | B4 A4 | G8 |] %17
w: love~ _ _ his|name,~ _ _ I|love~ _ _ his|word;|||||
w: glo- * * ries|shine~ _ _ with|beams~ _ _ so|bright,|||||
w: where~ _ _ his|love~ _ _ re-|solves~ _ _ to|bless,|||||
w: is~ _ _ his|arm,~ _ _ and|shall~ _ _ fuk-|fil|||||
V:4
 G,8 | G,2 G,2 E,2 D,2 | G,6 G,2 | C2 B,2 A,2 G,2 | D,6 B,,2 | C,2 D,2 D,2 D,2 | G,6 D,2 | %7
w: 4.~Through|all his an- cient|works Sur-|pri- sing wis- dom|shines, Con-|founds the powers of|hell, And|
 G,2 F,2 G,2 A,2 | D,4 z2 D,2 | (G,3 F, E,2) F,2 | (G,3 A, B,2) A,2 | (G,3 F, E,2) D,2 | G,6 z2 | %13
w: breaks their cursed de-|signs. *|||||
 G,4 A,2 A,2 | (D,2 E,F, G,2) C,2 | D,4 D,4 | G,,8 |] %17
w: 4.~His great de-|crees,~ _ _ _ his|sove- reign|will.|

